X:4
T: VON GOLD LIESS ER EINE BRUECKE BAUN
N: E0001C
O: Europa, Mitteleuropa, Deutschland, Schlesien, Joachimstal
R: Sage, Maerchen -, Zauber - Lied
M: 4/4
L: 1/16
K: F
C4 | F4F4A4c4 | f4e2d2c4
f3f | d4B4G4c4 | A8z4
A4 | c2B2B4G4G4 | A4A2B2c4
A2G2 | F3FF3FA2G2F2G2 | F8z4

